docs/.gitbook/assets/icon-bolt-16@dark.svg

<svg width="32" height="32" viewBox="0 0 16 16" fill="none" xmlns="http://www.w3.org/2000/svg">
<rect x="0" y="0" width="16" height="16" fill="#181c1f"/>
<path fill-rule="evenodd" clip-rule="evenodd" d="M9.53703 1.05708C9.81729 1.17317 10 1.44664 10 1.74999V6.99999H13.25C13.5534 6.99999 13.8268 7.18272 13.9429 7.46298C14.059 7.74323 13.9949 8.06582 13.7804 8.28032L7.28035 14.7803C7.06585 14.9948 6.74327 15.059 6.46301 14.9429C6.18275 14.8268 6.00002 14.5533 6.00002 14.25V8.99999H2.75002C2.44668 8.99999 2.1732 8.81726 2.05711 8.537C1.94103 8.25675 2.00519 7.93416 2.21969 7.71966L8.71969 1.21966C8.93419 1.00516 9.25678 0.940996 9.53703 1.05708ZM4.56068 7.49999H6.75002C7.16424 7.49999 7.50002 7.83578 7.50002 8.24999V12.4393L11.4394 8.49999H9.25002C8.83581 8.49999 8.50002 8.16421 8.50002 7.74999V3.56065L4.56068 7.49999Z" fill="#fff"/>
</svg>

<svg xmlns="http://www.w3.org/2000/svg" width="32" height="32" fill="none" viewBox="0 0 16 16"><path fill="#181c1f" d="M0 0h16v16H0z"/><path fill="#fff" fill-rule="evenodd" d="M9.537 1.057A.75.75 0 0 1 10 1.75V7h3.25a.75.75 0 0 1 .53 1.28l-6.5 6.5A.75.75 0 0 1 6 14.25V9H2.75a.75.75 0 0 1-.53-1.28l6.5-6.5a.75.75 0 0 1 .817-.163M4.561 7.5H6.75a.75.75 0 0 1 .75.75v4.19l3.94-3.94H9.25a.75.75 0 0 1-.75-.75V3.56z" clip-rule="evenodd"/></svg>
